public/frontend/images/icons/nav/portfolio.svg

<svg width="24" height="24" viewBox="0 0 24 24" fill="none" xmlns="http://www.w3.org/2000/svg">
<path d="M9 10C9 10.5523 8.55229 11 8 11C7.44772 11 7 10.5523 7 10C7 9.44771 7.44772 9 8 9C8.55229 9 9 9.44771 9 10Z" fill="url(#paint0_linear_8_2859)"/>
<path d="M16 11C16.5523 11 17 10.5523 17 10C17 9.44771 16.5523 9 16 9C15.4477 9 15 9.44771 15 10C15 10.5523 15.4477 11 16 11Z" fill="url(#paint1_linear_8_2859)"/>
<path fill-rule="evenodd" clip-rule="evenodd" d="M7.10303 6H7C7 3.23858 9.23858 1 12 1C14.7614 1 17 3.23858 17 6H16.897C17.4001 6.00005 17.8362 6.0015 18.1983 6.03158C18.6002 6.06495 18.9997 6.13867 19.3829 6.33776C19.9309 6.62239 20.3776 7.06915 20.6622 7.61708C20.8613 8.00034 20.935 8.39981 20.9684 8.8017C21 9.18235 21 9.64473 21 10.1807V13.6035C21 14.7055 21 15.5945 20.9403 16.3138C20.8788 17.0547 20.7487 17.7049 20.4371 18.3049C19.9627 19.2181 19.2181 19.9627 18.3049 20.4371C17.7049 20.7487 17.0547 20.8788 16.3138 20.9403C15.5944 21 14.7056 21 13.6036 21H10.3964C9.29441 21 8.40556 21 7.68616 20.9403C6.94535 20.8788 6.29514 20.7487 5.69513 20.4371C4.78191 19.9627 4.03731 19.2181 3.56293 18.3049C3.25126 17.7049 3.12125 17.0547 3.05973 16.3138C2.99998 15.5944 2.99999 14.7056 3 13.6035L3 10.1808C2.99998 9.64478 2.99997 9.18237 3.03158 8.8017C3.06495 8.39981 3.13867 8.00034 3.33776 7.61708C3.62239 7.06915 4.06915 6.62239 4.61708 6.33776C5.00035 6.13867 5.39982 6.06495 5.8017 6.03158C6.16384 6.0015 6.59995 6.00005 7.10303 6ZM9 6C9 4.34315 10.3431 3 12 3C13.6569 3 15 4.34315 15 6H9ZM5.53903 8.11259C5.58924 8.0865 5.69125 8.04763 5.96722 8.02472C6.25517 8.0008 6.63373 8 7.22 8H16.78C17.3663 8 17.7448 8.0008 18.0328 8.02472C18.3088 8.04763 18.4108 8.0865 18.461 8.11259C18.6436 8.20746 18.7925 8.35638 18.8874 8.53903C18.9135 8.58924 18.9524 8.69125 18.9753 8.96722C18.9992 9.25517 19 9.63372 19 10.22V13.56C19 14.7158 18.9992 15.5214 18.9471 16.1483C18.8961 16.7632 18.8009 17.116 18.6622 17.3829C18.3776 17.9309 17.9309 18.3776 17.3829 18.6622C17.116 18.8009 16.7632 18.8961 16.1483 18.9471C15.5214 18.9992 14.7158 19 13.56 19H10.44C9.28424 19 8.47856 18.9992 7.85169 18.9471C7.23678 18.8961 6.88403 18.8009 6.61708 18.6622C6.06915 18.3776 5.62239 17.9309 5.33776 17.3829C5.19909 17.116 5.10393 16.7632 5.05286 16.1483C5.00081 15.5214 5 14.7158 5 13.56V10.22C5 9.63372 5.00081 9.25517 5.02472 8.96722C5.04764 8.69125 5.08651 8.58924 5.11259 8.53903C5.20746 8.35638 5.35638 8.20746 5.53903 8.11259Z" fill="url(#paint2_linear_8_2859)"/>
<defs>
<linearGradient id="paint0_linear_8_2859" x1="12" y1="1" x2="12" y2="21" gradientUnits="userSpaceOnUse">
<stop offset="0.151042" stop-color="white"/>
<stop offset="0.213542" stop-color="white"/>
<stop offset="0.473958" stop-color="#F9E2E2"/>
<stop offset="0.901042" stop-color="white"/>
</linearGradient>
<linearGradient id="paint1_linear_8_2859" x1="12" y1="1" x2="12" y2="21" gradientUnits="userSpaceOnUse">
<stop offset="0.151042" stop-color="white"/>
<stop offset="0.213542" stop-color="white"/>
<stop offset="0.473958" stop-color="#F9E2E2"/>
<stop offset="0.901042" stop-color="white"/>
</linearGradient>
<linearGradient id="paint2_linear_8_2859" x1="12" y1="1" x2="12" y2="21" gradientUnits="userSpaceOnUse">
<stop offset="0.151042" stop-color="white"/>
<stop offset="0.213542" stop-color="white"/>
<stop offset="0.473958" stop-color="#F9E2E2"/>
<stop offset="0.901042" stop-color="white"/>
</linearGradient>
</defs>
</svg>

<svg xmlns="http://www.w3.org/2000/svg" width="24" height="24" fill="none"><path fill="url(#a)" d="M9 10a1 1 0 1 1-2 0 1 1 0 0 1 2 0Z"/><path fill="url(#b)" d="M16 11a1 1 0 1 0 0-2 1 1 0 0 0 0 2Z"/><path fill="url(#c)" fill-rule="evenodd" d="M7.103 6H7a5 5 0 0 1 10 0h-.103c.503 0 .94.002 1.301.032.402.033.802.107 1.185.306a3 3 0 0 1 1.28 1.28c.198.382.272.782.305 1.184.032.38.032.843.032 1.379v3.423c0 1.102 0 1.99-.06 2.71-.061.74-.191 1.39-.503 1.99a5 5 0 0 1-2.132 2.133c-.6.312-1.25.442-1.991.503-.72.06-1.608.06-2.71.06h-3.208c-1.102 0-1.99 0-2.71-.06-.74-.061-1.39-.191-1.99-.503a5 5 0 0 1-2.133-2.132c-.312-.6-.442-1.25-.503-1.991-.06-.72-.06-1.608-.06-2.71V10.18c0-.536 0-.999.032-1.38.033-.401.107-.8.306-1.184a3 3 0 0 1 1.28-1.28C5 6.14 5.4 6.066 5.801 6.033 6.164 6.002 6.6 6 7.103 6ZM9 6a3 3 0 1 1 6 0H9ZM5.539 8.113c.05-.027.152-.065.428-.088C6.255 8 6.634 8 7.22 8h9.56c.586 0 .965 0 1.253.025.276.023.378.061.428.088a1 1 0 0 1 .426.426c.026.05.065.152.088.428.024.288.025.667.025 1.253v3.34c0 1.156 0 1.961-.053 2.588-.05.615-.146.968-.285 1.235a2.999 2.999 0 0 1-1.28 1.28c-.266.138-.619.233-1.234.284-.627.052-1.432.053-2.588.053h-3.12c-1.156 0-1.961 0-2.588-.053-.615-.05-.968-.146-1.235-.285a3 3 0 0 1-1.28-1.28c-.138-.266-.233-.619-.284-1.234C5 15.521 5 14.716 5 13.56v-3.34c0-.586 0-.965.025-1.253.023-.276.062-.378.088-.428a1 1 0 0 1 .426-.426Z" clip-rule="evenodd"/><defs><linearGradient id="a" x1="12" x2="12" y1="1" y2="21" gradientUnits="userSpaceOnUse"><stop offset=".151" stop-color="#fff"/><stop offset=".214" stop-color="#fff"/><stop offset=".474" stop-color="#F9E2E2"/><stop offset=".901" stop-color="#fff"/></linearGradient><linearGradient id="b" x1="12" x2="12" y1="1" y2="21" gradientUnits="userSpaceOnUse"><stop offset=".151" stop-color="#fff"/><stop offset=".214" stop-color="#fff"/><stop offset=".474" stop-color="#F9E2E2"/><stop offset=".901" stop-color="#fff"/></linearGradient><linearGradient id="c" x1="12" x2="12" y1="1" y2="21" gradientUnits="userSpaceOnUse"><stop offset=".151" stop-color="#fff"/><stop offset=".214" stop-color="#fff"/><stop offset=".474" stop-color="#F9E2E2"/><stop offset=".901" stop-color="#fff"/></linearGradient></defs></svg>
